X:33
T:Cooley's
M:C|
E:7
Z:Boston 
R:reel
K:EDor
D|EBBA B2 EB|B2 AB dBAG|(3FED AD BDAG|(3FED FA dAFD|EBBAB2 EB|B2 AB defg|afec dBAF|DEFD E3:|
gf|eB ~B2 efgf|eB ~B2 gedB|A2 FA DAFA|~A2 FA defg|eB~B2 efgf|eB ~B2 defg|afec dBAF|DEFD E2:|
<end>
<start>
